X:1
T:In der Christnacht
T:Max Bruch
T:Text: J. Nachtenhöfer
T:In der Christnacht
T:Nr. 1 aus Neun Lieder, Op. 60
T:CPDL - Creative Commons Attribution Non Commercial 3.0
T:CPDL - Creative Commons Attribution Non Commercial 3.0
T:CPDL - Creative Commons Attribution Non Commercial 3.0
T:CPDL - Creative Commons Attribution Non Commercial 3.0
C:Max Bruch
Z:J. Nachtenhöfer
Z:CPDL - Creative Commons Attribution Non Commercial 3.0
%%score [ 1 2 ( 3 4 ) 5 ]
L:1/8
Q:1/4=80
M:4/4
K:Ab
V:1 treble nm="Sopran"
V:2 treble nm="Alt"
V:3 treble-8 nm="Tenor"
V:4 treble-8 
V:5 bass nm="Bass"
V:1
"^Andante sostenuto" z8 |!pp! d4 c2 B2 | A2 A2 G2 A2 | F4 F2"^poco cresc." F2 | E3 E A3 A | %5
w: |1.~Dies ist die|Nacht, da mir er-|schie- nen des|gro- ßen Got- tes|
w: |2.~Lass dich er-|leuch- ten, mei- ne|See- le, ver-|säu- me nicht den|
!>(! B6 B2!>)! | !fermata!B6"^cresc." E2 | c3 c cB Bc | d3 d!<(! d2 c2-!<)! | c2!f! c2 f3 d | %10
w: Freund- lich-|keit! Das|Kind, dem al- * le _|En- gel die- nen,|_ bringt Licht in|
w: Gna- den-|schein! Der|Glanz in die- * ser _|klei- nen Höh- le|_ dringt bald in|
 d2 A2 B3 B | A4 !>!d4- | d2!>(! D2 _G2 F2!>)! |!p! E6 E2 | F6 F2 | F3"^cresc." F B2 B2 | %16
w: mei- ne Dun- kel-|heit, Licht|_ in mei- ne|Dun- kel-|heit, und|die- ses Welt\-~ und|
w: al- le Welt hin-|ein, bald|_ in al- le|Welt hin-|ein, er|trei- bet weg der|
 e3 e (f3 f) |!f! (e4 !>!e2) !>!e2 | !>!e3 A A2 G2 | (A3 A)!ff! e4- | (e4 f2) d>f | a3 e e2 e2 | %22
w: Him- mels- licht _|weicht hun- dert-|tau- send Son- nen|nicht, _ weicht|_ hun- dert- *|tau- send Son- nen|
w: Höl- le Macht, der|Sün- * den|und des To- des|Nacht, der Sün-|* * den _|und des To- des|
 !fermata!A8 |] %23
w: nicht.|
w: Nacht.|
V:2
!pp! C4 D2 E2 | (F2 A4) GF | E2 C2 E3 E | E4 D2"^poco cresc." DC | B,3 B, A,2 E2 | %5
w: 1.~Dies ist die|Nacht, _ die _|Nacht, da mir er-|schie- nen des _|gro- ßen Got- tes|
w: 2.~Lass dich er-|leuch- ten, er- *|leuch- ten, mei- ne|See- le, ver- *|säu- me nicht den|
!>(! (E2 (=D2 D)C) D2!>)! | !fermata!E6"^cresc." E2 | A3 A AG G=A | B3 B!<(! B2 _A2-!<)! | %9
w: Freund _ _ _ lich-|keit! Das|Kind, dem al- * le _|En- gel die- nen,|
w: Gna- * * * den-|schein! Der|Glanz in die- * ser _|klei- nen Höh- le|
 A2!f! _G2 F3 A | A2 F2 F2 _GF | E4 !>!D3 E | F4!>(! D4!>)! |!p! (D4 C2) B,2 | (B,2 =A,4) E2 | %15
w: _ bringt Licht in|mei- ne Dun- kel- *|heit, Licht in|mei- ne|Dun- * kel-|heit, _ und|
w: _ dringt bald in|al- le Welt hin- *|ein, bald in|al- le|Welt _ hin-|ein, _ er|
 D3"^cresc." D F2 E2 | E3 A (A3 A) |!f! (B4 B)A AG | FGAd c2 B2 | (A3 A)!ff! GEFG | A6 A2 | %21
w: die- ses Welt- und|Him- mels- licht _|weicht hun- * dert _|tau- * * send Son- nen|nicht, _ weicht _ _ _|hun- dert-|
w: trei- bet weg der|Höl- le Macht, der|Sün- * * den _|und _ _ des To- des|Nacht, der Sün- * * *|* den|
 AB cd c2 B2 | !fermata!A8 |] %23
w: tau- * send _ Son- nen|nicht.|
w: und _ des _ To- des|Nacht.|
V:3
!pp! A4 B2 c2 | (d2 f2) (e2 d2) | c2 A2 B2 EA | A4 A2"^poco cresc." BA | G3 G E3 E | %5
w: |* * die _|Nacht, * * * *|||
w: |||||
!>(! A6 FB!>)! | (A2 !fermata!G4) z2 | z2"^cresc." E2 e3 e | de fg!<(! (f3 F)!<)! | F2!f! A2 A3 f | %10
w: ||Das Kind, dem|En- * gel _ die- *|nen * * *|
w: ||Der Glanz in|die- * ser _ Höh- *|le * * *|
 f2 d2 d2 ed | (d2 c2) !>!A3 _G | (F2!>(! A2) (_G2 A2)!>)! |!p! B4 c4 | c6 F2 | %15
w: |||||
w: |||||
 B3"^cresc." B _A2 =GB | B2 Ae (e2 =d2) |!f! (g3 f) (e2 _d2) | cdef e2 d2 | c4 z2!ff! (e2 | %20
w: ||weicht _ hun- dert-|tau- * * send Son- nen|nicht, weicht|
w: ||Sün- * den _|und _ _ des To- des|Nacht, der|
 e)ag_g (f2 (3f)ed | cd ef e2 e2 | !fermata![ce]8 |] %23
w: _ _ _ _ hun- * * dert-|tau- * send _ Son- nen|nicht.|
w: _ _ _ _ Sün- * * den|und _ des _ To- des|Nacht.|
V:4
 x8 | x8 | x8 | x8 | x8 | x8 | x8 | x8 | x8 | x8 | x8 | x8 | x8 | x8 | x8 | x8 | x8 | x8 | x8 | %19
 x8 | x8 | x6 d2 | x8 |] %23
V:5
!pp! A,,8 | A,,6 B,,2 | C,2 F,2 E,D, C,2 | D,4 D,3"^poco cresc." D, | D,3 D, C,3 C, | %5
w: 1.~Dies|ist die|Nacht, da mir _ er-|schie- nen des|gro- ßen Got- tes|
w: 2.~Lass|dich er-|leuch- ten, mei- * ne|See- le, ver-|säu- me nicht den|
!>(! F,4 B,,4!>)! | !fermata!E,6"^cresc." E,2 | A,,B,, C,A,, E,2 D,C, | B,,C, D,=E,!<(! F,4!<)! | %9
w: Freund- lich-|keit! Das|Kind, _ dem _ al- le _|En- * gel _ die-|
w: Gna- den-|schein! Der|Glanz _ in _ die- ser _|klei- * nen _ Höh-|
 F,2!f! _E,2 D,3 D, | D3 C B,A, _G,2 | _G,4 !>!F,3 E, | (D,3!>(! C,) (B,,2 A,,2)!>)! | %13
w: nen, bringt Licht in|mei- ne Dun- * kel-|heit, Licht in|mei- * ne _|
w: le dringt bald in|al- le Welt _ hin-|ein, bald in|al- * le _|
!p! _G,,6 _G,2 | F,6 z2 | z2"^cresc." B,,2 D,3 D, | C,3 C, (B,,3 B,,) |!f! (E,2 _D2) C2 B,2 | %18
w: Dun- kel-|heit,|und die- ses|Him- mels- licht _|weicht _ hun- dert-|
w: Welt hin-|ein,|er trei- bet|weg der Höl- le|Macht, der Sün- den|
 A,B,CD E2 E,2 | F,A,G,F,!ff! E,F,E,D, | C,A,, B,,C, D,E, F,2 | E,6 E,2 | !fermata!A,8 |] %23
w: tau- * * send Son- nen|nicht, _ _ _ weicht _ _ _|hun- * dert- * tau- * send|Son- nen|nicht.|
w: und _ _ des To- des|Nacht, _ _ _ der _ _ _|Sün- * den _ und- * des|To- des|Nacht.|

